X:65
T:Sweeney's
R:Reel
M:4/4
K:Bm
|:E2 GE B,EGE|CEGE FGAF|E2 GE B,EGE|1 FEDE FGAF:|2 FEDE FGAB||
|:DG ~G2 dG BG| dG BG FGAF|DG ~G2 dG BG|FEDE FGAF:||
|:cA ~A2 cAdA|cA ~A2 c3 d |cAdB cBAG|FGAB c3 d:||
ed ~d2 BG ~G2|FGAB c3 d|ed ~d2 BAGE|DEFG ABcd|
ed ~d2 BG ~G2|FGAB c3 d|ed ~d2 BAGE|DEFG AB (3cBA||
BGDG B,GDG|BGDG FGAc|BGDG B,GDG|FEDE FGAc|
BGDG B,GDG|BGDG FGAc|BGDG B,GDG|FEDE FGAF||
